X:238
T:Squirrel Hunter
M:C
K:Dmix
e2-|"Em"e2 e2 B2B2|efed B2 BA| "G" G2 Bc d2 Bc | dBcA Bc d2|
"Em"e3eB2B2 | efed B2 BA| "G"G2 Bc "Em"dABG |1"D"A3B A2:|2"D"A3BA2BA||
|:"Am"e2 ge a2ag | edef gedB | "G" G2Bc d2Bc | "Em"dBcA Bcd2|
"Am"e2 ge a2ag | edef gedB | "G" G2Bc "Em" dABG | "D"A3 BA e2- :|
